src/icons/docker-icon.svg

<svg id="Layer_1" data-name="Layer 1" xmlns="http://www.w3.org/2000/svg" viewBox="0 0 461.35 298.6"><defs><style>.cls-1{fill:#fff;}</style></defs><title>docker-icon</title><path id="outline" d="M241.7,168.5h47.1v48.2h23.8a105,105,0,0,0,32.8-5.5,83.06,83.06,0,0,0,15.9-7.2c-6.7-8.7-10.1-19.7-11.1-30.5-1.4-14.7,1.6-33.9,11.6-45.4l5-5.7,5.9,4.7c14.9,11.9,27.4,28.6,29.6,47.7,17.9-5.3,38.9-4,54.7,5.1l6.5,3.7-3.4,6.7c-13.3,26-41.2,34.1-68.5,32.7C350.8,324.7,261.9,372.8,154.2,372.8c-55.7,0-106.7-20.8-135.8-70.2l-.5-.8-4.2-8.6C3.9,271.5.6,247.6,2.8,223.8l.7-7.1H43.8V168.5H90.9V121.4h94.3V74.2h56.6v94.3Z" transform="translate(-2.15 -74.2)"/><g id="Containers"><path class="cls-1" d="M85.8,179.7H89v34.1H85.8Zm-6.2,0H83v34.1H79.6Zm-6.2,0h3.4v34.1H73.4Zm-6.1,0h3.4v34.1H67.3Zm-6.2,0h3.4v34.1H61.1Zm-6.1,0h3.2v34.1H55Zm-3.4-3.4H92.5v40.9H51.6Z" transform="translate(-2.15 -74.2)"/><path class="cls-1" d="M133,132.6h3.2v34.1H133Zm-6.2,0h3.4v34.1h-3.4Zm-6.2,0H124v34.1h-3.4Zm-6.2,0h3.4v34.1h-3.4Zm-6.2,0h3.4v34.1h-3.4Zm-6.1,0h3.2v34.1h-3.2Zm-3.4-3.4h40.9v40.9H98.7Z" transform="translate(-2.15 -74.2)"/><path class="cls-1" d="M133,179.7h3.2v34.1H133Zm-6.2,0h3.4v34.1h-3.4Zm-6.2,0H124v34.1h-3.4Zm-6.2,0h3.4v34.1h-3.4Zm-6.2,0h3.4v34.1h-3.4Zm-6.1,0h3.2v34.1h-3.2Zm-3.4-3.4h40.9v40.9H98.7Z" transform="translate(-2.15 -74.2)"/><path class="cls-1" d="M180.1,179.7h3.2v34.1h-3.2Zm-6.2,0h3.4v34.1h-3.4Zm-6.2,0h3.4v34.1h-3.4Zm-6.2,0h3.4v34.1h-3.4Zm-6.1,0h3.4v34.1h-3.4Zm-6.1,0h3.2v34.1h-3.2Zm-3.4-3.4h40.9v40.9H145.9Z" transform="translate(-2.15 -74.2)"/><path class="cls-1" d="M180.1,132.6h3.2v34.1h-3.2Zm-6.2,0h3.4v34.1h-3.4Zm-6.2,0h3.4v34.1h-3.4Zm-6.2,0h3.4v34.1h-3.4Zm-6.1,0h3.4v34.1h-3.4Zm-6.1,0h3.2v34.1h-3.2Zm-3.4-3.4h40.9v40.9H145.9Z" transform="translate(-2.15 -74.2)"/><path class="cls-1" d="M227.3,179.7h3.2v34.1h-3.2Zm-6.2,0h3.4v34.1h-3.4Zm-6.2,0h3.4v34.1h-3.4Zm-6.2,0h3.4v34.1h-3.4Zm-6.2,0h3.4v34.1h-3.4Zm-6.1,0h3.2v34.1h-3.2Zm-3.4-3.4h40.9v40.9H193V176.3Z" transform="translate(-2.15 -74.2)"/><path class="cls-1" d="M227.3,132.6h3.2v34.1h-3.2Zm-6.2,0h3.4v34.1h-3.4Zm-6.2,0h3.4v34.1h-3.4Zm-6.2,0h3.4v34.1h-3.4Zm-6.2,0h3.4v34.1h-3.4Zm-6.1,0h3.2v34.1h-3.2Zm-3.4-3.4h40.9v40.9H193V129.2Z" transform="translate(-2.15 -74.2)"/><path class="cls-1" d="M227.3,85.5h3.2v34.1h-3.2Zm-6.2,0h3.4v34.1h-3.4Zm-6.2,0h3.4v34.1h-3.4Zm-6.2,0h3.4v34.1h-3.4Zm-6.2,0h3.4v34.1h-3.4Zm-6.1,0h3.2v34.1h-3.2ZM193,82h40.9v40.9H193V82Z" transform="translate(-2.15 -74.2)"/><path class="cls-1" d="M274.4,179.7h3.2v34.1h-3.2Zm-6.2,0h3.4v34.1h-3.4Zm-6.2,0h3.4v34.1H262Zm-6.2,0h3.4v34.1h-3.4V179.7Zm-6.2,0H253v34.1h-3.4Zm-6,0h3.2v34.1h-3.2Zm-3.4-3.4H281v40.9H240.1l.1-40.9Z" transform="translate(-2.15 -74.2)"/></g><path class="cls-1" d="M137,283.4a11.3,11.3,0,1,1-11.3,11.3A11.42,11.42,0,0,1,137,283.4" transform="translate(-2.15 -74.2)"/><path d="M137,286.6a9.29,9.29,0,0,1,2.9.5,3.24,3.24,0,0,0-1.6,2.9,3.33,3.33,0,0,0,3.3,3.3,3.45,3.45,0,0,0,2.9-1.7,8.15,8.15,0,0,1,.6,3.1,8.1,8.1,0,0,1-16.2,0,8.26,8.26,0,0,1,8.1-8.1" transform="translate(-2.15 -74.2)"/><path class="cls-1" d="M167,364.7c-27.9-13.2-43.2-31.3-51.8-50.9-10.4,3-22.8,4.9-37.3,5.7-5.5.3-11.2.5-17.2.5-6.9,0-14.3-.2-21.9-.6C64.4,345,95.9,364.7,154.2,365Z" transform="translate(-2.15 -74.2)"/></svg>

<?xml version="1.0" encoding="utf-8"?>
<!-- Generator: Adobe Illustrator 22.1.0, SVG Export Plug-In . SVG Version: 6.00 Build 0)  -->
<svg version="1.1" id="Layer_1" xmlns="http://www.w3.org/2000/svg" xmlns:xlink="http://www.w3.org/1999/xlink" x="0px" y="0px"
	 viewBox="0 0 466 423.9" style="enable-background:new 0 0 466 423.9;" xml:space="preserve">
<style type="text/css">
	.st0{display:none;fill:#E7E7E7;}
	.st1{display:none;}
	.st2{display:inline;fill:#394D54;}
	.st3{fill:#FFFFFF;}
</style>
<rect x="-43.5" y="37" class="st0" width="792" height="612"/>
<g>
	<path id="outline_7_" d="M241.7,168.5h47.1v48.2h23.8c11,0,22.3-2,32.8-5.5c5.1-1.7,10.9-4.2,15.9-7.2
		c-6.7-8.7-10.1-19.7-11.1-30.5c-1.4-14.7,1.6-33.9,11.6-45.4l5-5.7l5.9,4.7c14.9,11.9,27.4,28.6,29.6,47.7
		c17.9-5.3,38.9-4,54.7,5.1l6.5,3.7l-3.4,6.7c-13.3,26-41.2,34.1-68.5,32.7c-40.8,101.7-129.7,149.8-237.4,149.8
		c-55.7,0-106.7-20.8-135.8-70.2l-0.5-0.8l-4.2-8.6c-9.8-21.7-13.1-45.6-10.9-69.4l0.7-7.1h40.3v-48.2h47.1v-47.1h94.3V74.2h56.6
		V168.5z"/>
	<g class="st1">
		<path class="st2" d="M60.7,319.9c6,0,11.8-0.2,17.2-0.5c0.5,0,0.9-0.1,1.4-0.1c0,0,0,0,0,0c13.9-0.9,25.9-2.7,35.9-5.6
			c0,0,0,0,0,0c1.8-0.5,3.6-1.1,5.3-1.7c1.9-0.7,2.9-2.7,2.2-4.6c-0.7-1.9-2.7-2.9-4.6-2.2c-12.7,4.4-29.5,6.8-50.1,7.3c0,0,0,0,0,0
			c-10.5,0.2-21.9,0-34.4-0.8c0,0,0,0,0,0c-0.6,0-1.3-0.1-1.9-0.1c-2-0.1-3.7,1.4-3.9,3.4c-0.1,2,1.4,3.7,3.4,3.9
			c2.5,0.2,5,0.3,7.5,0.5c0.4,0,0.8,0,1.2,0.1l0,0C47.2,319.7,54.1,319.9,60.7,319.9z"/>
	</g>
	<g id="Containers_8_">
		<path class="st3" d="M85.8,179.7h3.2v34.1h-3.2V179.7z M79.6,179.7H83v34.1h-3.4V179.7z M73.4,179.7h3.4v34.1h-3.4V179.7z
			 M67.3,179.7h3.4v34.1h-3.4V179.7z M61.1,179.7h3.4v34.1h-3.4C61.1,213.8,61.1,179.7,61.1,179.7z M55,179.7h3.2v34.1H55V179.7z
			 M51.6,176.3h40.9v40.9H51.6V176.3z"/>
		<path class="st3" d="M133,132.6h3.2v34.1H133V132.6z M126.8,132.6h3.4v34.1h-3.4C126.8,166.6,126.8,132.6,126.8,132.6z
			 M120.6,132.6h3.4v34.1h-3.4C120.6,166.6,120.6,132.6,120.6,132.6z M114.4,132.6h3.4v34.1h-3.4
			C114.4,166.6,114.4,132.6,114.4,132.6z M108.2,132.6h3.4v34.1h-3.4V132.6z M102.1,132.6h3.2v34.1h-3.2V132.6z M98.7,129.2h40.9
			v40.9H98.7V129.2z"/>
		<path class="st3" d="M133,179.7h3.2v34.1H133V179.7z M126.8,179.7h3.4v34.1h-3.4C126.8,213.8,126.8,179.7,126.8,179.7z
			 M120.6,179.7h3.4v34.1h-3.4C120.6,213.8,120.6,179.7,120.6,179.7z M114.4,179.7h3.4v34.1h-3.4
			C114.4,213.8,114.4,179.7,114.4,179.7z M108.2,179.7h3.4v34.1h-3.4V179.7z M102.1,179.7h3.2v34.1h-3.2V179.7z M98.7,176.3h40.9
			v40.9H98.7V176.3z"/>
		<path class="st3" d="M180.1,179.7h3.2v34.1h-3.2V179.7z M173.9,179.7h3.4v34.1h-3.4V179.7z M167.7,179.7h3.4v34.1h-3.4V179.7z
			 M161.5,179.7h3.4v34.1h-3.4V179.7z M155.4,179.7h3.4v34.1h-3.4V179.7z M149.3,179.7h3.2v34.1h-3.2V179.7z M145.9,176.3h40.9v40.9
			h-40.9V176.3z"/>
		<path class="st3" d="M180.1,132.6h3.2v34.1h-3.2V132.6z M173.9,132.6h3.4v34.1h-3.4V132.6z M167.7,132.6h3.4v34.1h-3.4V132.6z
			 M161.5,132.6h3.4v34.1h-3.4V132.6z M155.4,132.6h3.4v34.1h-3.4V132.6z M149.3,132.6h3.2v34.1h-3.2V132.6z M145.9,129.2h40.9v40.9
			h-40.9V129.2z"/>
		<path class="st3" d="M227.3,179.7h3.2v34.1h-3.2V179.7z M221.1,179.7h3.4v34.1h-3.4V179.7z M214.9,179.7h3.4v34.1h-3.4V179.7z
			 M208.7,179.7h3.4v34.1h-3.4V179.7z M202.5,179.7h3.4v34.1h-3.4V179.7z M196.4,179.7h3.2v34.1h-3.2V179.7z M193,176.3h40.9v40.9
			H193L193,176.3L193,176.3z"/>
		<path class="st3" d="M227.3,132.6h3.2v34.1h-3.2V132.6z M221.1,132.6h3.4v34.1h-3.4V132.6z M214.9,132.6h3.4v34.1h-3.4V132.6z
			 M208.7,132.6h3.4v34.1h-3.4V132.6z M202.5,132.6h3.4v34.1h-3.4V132.6z M196.4,132.6h3.2v34.1h-3.2V132.6z M193,129.2h40.9v40.9
			H193L193,129.2L193,129.2z"/>
		<path class="st3" d="M227.3,85.5h3.2v34.1h-3.2V85.5z M221.1,85.5h3.4v34.1h-3.4V85.5z M214.9,85.5h3.4v34.1h-3.4V85.5z
			 M208.7,85.5h3.4v34.1h-3.4V85.5z M202.5,85.5h3.4v34.1h-3.4V85.5z M196.4,85.5h3.2v34.1h-3.2V85.5z M193,82h40.9v40.9H193L193,82
			L193,82z"/>
		<path class="st3" d="M274.4,179.7h3.2v34.1h-3.2V179.7z M268.2,179.7h3.4v34.1h-3.4V179.7z M262,179.7h3.4v34.1H262V179.7z
			 M255.8,179.7h3.4v34.1h-3.4V179.7z M249.6,179.7h3.4v34.1h-3.4V179.7z M243.6,179.7h3.2v34.1h-3.2V179.7z M240.2,176.3H281v40.9
			h-40.9L240.2,176.3L240.2,176.3z"/>
	</g>
	<path class="st3" d="M137,283.4c6.2,0,11.3,5,11.3,11.3c0,6.2-5,11.3-11.3,11.3c-6.2,0-11.3-5-11.3-11.3
		C125.8,288.5,130.8,283.4,137,283.4"/>
	<path d="M137,286.6c1,0,2,0.2,2.9,0.5c-1,0.6-1.6,1.6-1.6,2.9c0,1.8,1.5,3.3,3.3,3.3c1.2,0,2.3-0.7,2.9-1.7c0.4,1,0.6,2,0.6,3.1
		c0,4.5-3.6,8.1-8.1,8.1c-4.5,0-8.1-3.6-8.1-8.1C129,290.3,132.6,286.6,137,286.6"/>
	<path class="st3" d="M167,364.7c-27.9-13.2-43.2-31.3-51.8-50.9c-10.4,3-22.8,4.9-37.3,5.7c-5.5,0.3-11.2,0.5-17.2,0.5
		c-6.9,0-14.3-0.2-21.9-0.6c25.6,25.6,57.1,45.3,115.4,45.6C158.5,364.9,162.8,364.8,167,364.7z"/>
</g>
</svg>
